X:190
T:Valse Bernadette
S:Gaston Nolet - SPTDQ 2012
Z:robin.beech@mcgill.ca
N:Still need to check the first part of the B
M:3/4
L:1/8
K:D
F2G2 |: A2AF AB | A2F2G2 | A2AF AB | A2F2E2 | D2 CD FA | d2B2d2 | c2-cB AF | G2E2F2 | 
G2 GF GA | G2 E2F2 | G2 GF GA | G2- GG EC | A,C EF GA | cB AG FE | B4 cB| A2F2G2 | 
A2AF AB | A2F2G2 | A2 AF AB | A2 F2 E2 | D2CD FA | d2 cd ed | B2 GB DG |
B2-B GB | e4fe | e2d2B2 | A2FA df | a2A2-AB | c2B2-BA | ag fg Bc | d2AdFA |1 D2F2G2 :|2 D4GB |:
d4B2 | e4B2 | d2Bd GB | d2 Bd ef | g4g2 | e2g2-ge | f6 | f6 |
e4ee | e2f2g2 | f4f2 | f4e2 | d4d2 | d2e2f2 | e4B2| d6 | 
d4 B2 | e4 B2 | d2Bd GB | dd Bd ef | g6 | g2fg ag | e6 | e2- ed ef | 
g6 | g2 fg ag | d2 Bd gb | d'b gd' bg | a2- ab ag | f2 ed ef | ge dG Bd |1 g2B2 GB :|1 g2F2G2 |]

